src/bitmaps/envelope.svg

<?xml version="1.0" encoding="UTF-8"?>
<svg width="26px" height="24px" viewBox="0 0 26 24" version="1.1" xmlns="http://www.w3.org/2000/svg" xmlns:xlink="http://www.w3.org/1999/xlink">
    <!-- Generator: Sketch 52.5 (67469) - http://www.bohemiancoding.com/sketch -->
    <title>atoms/icon/mail/alert</title>
    <desc>Created with Sketch.</desc>
    <g id="Symbols" stroke="none" stroke-width="1" fill="none" fill-rule="evenodd">
        <g id="atoms/icon/mail/alert" transform="translate(-6.000000, 0.000000)">
            <g>
                <rect id="Background" x="0" y="0" width="32" height="32"></rect>
                <path d="M23.4998891,8.00014557 L8.50011088,8.00014557 C7.83487766,7.99298831 7.19477005,8.25002454 6.72435104,8.71320475 C6.25393204,9.17638495 5.99287873,9.80664261 6.00014784,10.4616392 L6.00014784,21.5383608 C5.99287873,22.1933574 6.25393204,22.823615 6.72435104,23.2867953 C7.19477005,23.7499755 7.83487766,24.0070117 8.50011088,23.9998544 L23.4998891,23.9998544 C24.1651223,24.0070117 24.80523,23.7499755 25.275649,23.2867953 C25.746068,22.823615 26.0071213,22.1933574 25.9998522,21.5383608 L25.9998522,10.4616392 C26.0071213,9.80664261 25.746068,9.17638495 25.275649,8.71320475 C24.80523,8.25002454 24.1651223,7.99298831 23.4998891,8.00014557 Z M23.8748836,12.1846848 L16.3749945,17.7230456 C16.1527755,17.8871451 15.8472245,17.8871451 15.6250055,17.7230456 L8.12511643,12.1846848 C7.84897814,11.980768 7.79301457,11.5950511 8.00011828,11.323162 C8.207222,11.051273 8.59896705,10.9961705 8.87510534,11.2000873 L16,16.4615301 L23.1248947,11.2000873 C23.3035248,11.0681763 23.5400594,11.0401171 23.7453982,11.1264793 C23.950737,11.2128415 24.093684,11.4005047 24.1203927,11.618778 C24.1471013,11.8370513 24.0535137,12.0527738 23.8748836,12.1846848 Z" id="Shape" fill="#FFFFFF" fill-rule="nonzero"></path>
                <circle id="indicator" fill="#C80000" fill-rule="nonzero" cx="28" cy="4" r="4"></circle>
            </g>
        </g>
    </g>
</svg>

<svg width="26" height="24" xmlns="http://www.w3.org/2000/svg"><g transform="translate(-6)" fill="none" fill-rule="evenodd"><path d="M0 0h32v32H0z"/><path d="M23.5 8h-15a2.493 2.493 0 0 0-1.776.713A2.416 2.416 0 0 0 6 10.462v11.076a2.416 2.416 0 0 0 .724 1.749c.47.463 1.11.72 1.776.713h15a2.493 2.493 0 0 0 1.776-.713c.47-.463.731-1.094.724-1.749V10.462a2.416 2.416 0 0 0-.724-1.749A2.493 2.493 0 0 0 23.5 8zm.375 4.185l-7.5 5.538a.633.633 0 0 1-.75 0l-7.5-5.538A.61.61 0 0 1 8 11.323a.631.631 0 0 1 .875-.123L16 16.462l7.125-5.262a.633.633 0 0 1 .62-.074.611.611 0 1 1 .13 1.058z" fill="#FFF" fill-rule="nonzero"/><circle fill="#C80000" fill-rule="nonzero" cx="28" cy="4" r="4"/></g></svg>
